!!!COM:	la Rue, Pierre de
!!!CDT:	~1452///-1518/11/20
!!!OPR:	Missa De sancta cruce
!!!ONM:	2
!!!OTL:	Gloria
!!!AGN:	Mass; Gloria
!!!SCT:	Rue1011a
!!!SCA:	Rue1011a
!!!voices:	5
!!!voices-OPR:	5
**kern	**kern	**kern	**kern	**kern
*staff5	*staff4	*staff3	*staff2	*staff1
*Ivox	*Ivox	*Ivox	*Ivox	*Ivox
*I"Bassus	*I"Tenor2	*I"Tenor1	*I"Contra	*I"Discantus
*I'B	*I'T2	*I'T1	*I'C	*I'D
*>[A,B]	*>[A,B]	*>[A,B]	*>[A,B]	*>[A,B]
*>A	*>A	*>A	*>A	*>A
*clefF4	*clefGv2	*clefGv2	*clefG2	*clefG2
*k[b-]	*k[b-]	*k[b-]	*k[b-]	*k[b-]
*M3/1	*M3/1	*M3/1	*M3/1	*M3/1
*met(O)	*met(O)	*met(O)	*met(O)	*met(O)
!!incipit: 3
!!section: Et in terra pax
!!!OMD: Et in terra pax
=1-	=1-	=1-	=1-	=1-
0G	0.r	0.r	1g	0.r
.	.	.	2g/	.
.	.	.	1b-	.
1G	.	.	.	.
.	.	.	2a/	.
=2	=2	=2	=2	=2
1B-	0.r	0.r	2g/	0dd
.	.	.	4f/	.
.	.	.	4e/	.
2B-\	.	.	0d	.
1G	.	.	.	.
.	.	.	.	1dd
4F\	.	.	.	.
4E\	.	.	.	.
=3	=3	=3	=3	=3
0D	0d	0.r	2r	1ff
.	.	.	2d/	.
.	.	.	1f	2ff\
.	.	.	.	1dd
1r	1d	.	2f/	.
.	.	.	[2d/	4cc\
.	.	.	.	4b-\
=4	=4	=4	=4	=4
0D	1f	0.r	2d/]	0a
.	.	.	4c/	.
.	.	.	4B-/	.
.	2f\	.	0A	.
.	1d	.	.	.
1D	.	.	.	1r
.	4c\	.	.	.
.	4B-\	.	.	.
=5	=5	=5	=5	=5
1F	0A	0.r	2r	0a
.	.	.	2d/	.
2F\	.	.	2c/	.
1D	.	.	1f	.
.	1r	.	.	1a
4C/	.	.	4e/	.
4BB-/	.	.	4d/	.
=6	=6	=6	=6	=6
0AA	0A	0.r	2.c/	1cc
.	.	.	4d/	.
.	.	.	1e	2cc\
.	.	.	.	1a
1AA	1A	.	[1a	.
.	.	.	.	4g/
.	.	.	.	4f/
=7	=7	=7	=7	=7
1A	1c	0.r	1a]	1e
2A\	2c\	.	2.a/	2e/
1D	1A	.	.	1f
.	.	.	4g/	.
.	.	.	2f/	.
2D\	4G/	.	2d/	2f/
.	4F/	.	.	.
=8	=8	=8	=8	=8
2G\	2E/	0.r	2e/	2g/
2F\	2F/	.	1d	2.a/
1E	1G	.	.	.
.	.	.	.	4g/
.	.	.	2c/	1g
1D	1A	.	1d	.
.	.	.	.	2f#i/
=9	=9	=9	=9	=9
2r	2r	[0.G	2r	1g
2.E\	2.G/	.	2.g/	.
.	.	.	.	2r
4F\	4A/	.	4f/	.
2G\	2B-\	.	2d/	2.g/
2C/	2c\	.	2e/	.
.	.	.	.	4a/
2G\	2d\	.	2d/	2b-\
=10	=10	=10	=10	=10
2C/	2e-i\	0.G]	0g	2cc\
1C	2c\	.	.	1ee-i
.	1d	.	.	.
2BB-/	.	.	.	1dd
1C	1e-i	.	2g/	.
.	.	.	2g/	2cc\
=11	=11	=11	=11	=11
0G	0.d	[0.B-	0g	2dd\
.	.	.	.	2dd\
.	.	.	.	2dd\
.	.	.	.	2.b-\
1D	.	.	1f	.
.	.	.	.	4cc\
.	.	.	.	2dd\
=12	=12	=12	=12	=12
0E-	1r	0.B-]	2g/	0g
.	.	.	2.b-\	.
.	1r	.	.	.
.	.	.	4a/	.
.	.	.	1g	.
1BB-	1d	.	.	1b-
.	.	.	[2f/	.
=13	=13	=13	=13	=13
0F	2c\	0.A	2f/]	2cc\
.	1f	.	2f/	2.dd\
.	.	.	2d/	.
.	.	.	.	4ee\
.	4e\	.	2c/	2.ff\
.	4d\	.	.	.
1F	1c	.	[1f	.
.	.	.	.	4ee\
.	.	.	.	2cc\
=14	=14	=14	=14	=14
2BB-/	1B-	0.B-	2f/]	2dd\
1B-	.	.	1g	1dd
.	1r	.	.	.
2A\	.	.	2.f/	2cc\
2G\	1r	.	.	1b-
.	.	.	4e/	.
2G\	.	.	2e/	.
=15	=15	=15	=15	=15
0F	2r	[0.c	1f	1a
.	2.A/	.	.	.
.	.	.	2r	2r
.	4B-\	.	.	.
.	2c\	.	2.f/	2.a/
1r	2.A/	.	.	.
.	.	.	4g/	4b-\
.	.	.	2a/	2cc\
.	4B-\	.	.	.
=16	=16	=16	=16	=16
2.F\	2c\	0c]	2f/	2f/
.	2A/	.	2.a/	2.cc\
4E\	.	.	.	.
4C/	2.c\	.	.	.
4D\	.	.	8g/L	4b-\
.	.	.	8f/J	.
4E\	.	.	2e/	4g/
4F\	4B-\	.	.	4a/
4G\	1G	1B-	2d/	4b-\
4A\	.	.	.	4cc\
[2B-\	.	.	[2g/	[2dd\
=17	=17	=17	=17	=17
4B-\]	2B-\	2G/	2g/]	2dd\]
4A\	.	.	.	.
2F\	2A/	2A/	2.f/	1cc
1G	1G	1B-	.	.
.	.	.	4e/	.
.	.	.	2e/	1b-
1F	2r	1c	[1f	.
.	2c\	.	.	2a/
=18	=18	=18	=18	=18
2r	1d	0.B-	1f]	0b-
2BB-/	.	.	.	.
2.BB-/	2d\	.	1r	.
.	2.d\	.	.	.
4C/	.	.	.	.
2D\	.	.	2r	1r
.	4c\	.	.	.
[2E-i\	4B-\	.	2g/	.
.	4A/	.	.	.
=19	=19	=19	=19	=19
4E-i\]	2.G/	0.r	2g/	2r
4D\	.	.	.	.
1BB-	.	.	2g/	2dd\
.	4A/	.	.	.
.	1B-	.	2f/	2dd\
2BB-/	.	.	2f/	2dd\
4C/	1r	.	2e/	2cc\
4D\	.	.	.	.
4Eni\	.	.	2e/	2cc\
4F\	.	.	.	.
=20	=20	=20	=20	=20
1G	2r	0.r	1d	2b-\
.	2d\	.	.	2b-\
2.D\	2d\	.	2r	0a
.	2d\	.	1f	.
4E\	.	.	.	.
4F\	2c\	.	.	.
4G\	.	.	.	.
[2A\	2c\	.	2f/	.
=21	=21	=21	=21	=21
2A\]	2B-\	0.r	3e/	2r
.	.	.	3f/	.
2G\	2B-\	.	.	2dd\
.	.	.	3g/	.
1A	2A/	.	1c	2cc\
.	2c\	.	.	2a/
2r	2B-\	.	1r	2.b-\
2d\	2G/	.	.	.
.	.	.	.	4cc\
=22	=22	=22	=22	=22
2c\	1A	0.r	1r	3a/V
.	.	.	.	3b-\
2A\	.	.	.	.
.	.	.	.	3cc\Z
2B-\	1r	.	1r	2f/
2c\	.	.	.	2.cc\
3A\V	[1c	.	1e	.
.	.	.	.	4b-\
3B-\	.	.	.	.
.	.	.	.	2g/
3c\Z	.	.	.	.
=23	=23	=23	=23	=23
1F	2c\]	0.r	1f	3%2aV
.	2.d\	.	.	.
.	.	.	.	3a/Z
1G	.	.	2d/	3%2b-V
.	4c\	.	.	.
.	2B-\	.	2e/	.
.	.	.	.	6a/
.	.	.	.	6g/Z
1D	1A	.	1d	3f#i/V
.	.	.	.	3g/
.	.	.	.	3f#i/Z
=24	=24	=24	=24	=24
0.r	0.G	0.B-	2r	1g
.	.	.	1g	.
.	.	.	.	1r
.	.	.	4f/	.
.	.	.	4e/	.
.	.	.	2d/	2r
.	.	.	[2b-\	[2g/
=25	=25	=25	=25	=25
1r	0.r	1G	2b-\]	2g/]
.	.	.	4a/	4f/
.	.	.	4g/	4e/
2r	.	[0B-	2f/	2d/
1G	.	.	2g/	1b-
.	.	.	[1d	.
4F\	.	.	.	4a/
4E\	.	.	.	4g/
=26	=26	=26	=26	=26
2D\	2r	0B-]	1d]	2f/
1B-	1d	.	.	2g/
.	.	.	1r	1d
4A\	4c\	.	.	.
4G\	4B-\	.	.	.
2F\	2c\	2A/	2r	1r
2G\	2G/	2B-\	2d/	.
=27	=27	=27	=27	=27
2C/	2A/	2c\	2e/	0.r
2BB-/	2.B-\	1d	2d/	.
1C	.	.	1e	.
.	4A/	.	.	.
.	1G	1c	.	.
1D	.	.	1f	.
.	2F/	2Bni\	.	.
=28	=28	=28	=28	=28
1.C	0G	0.c	2e/	0.r
.	.	.	2c/	.
.	.	.	2c/	.
2C/	.	.	1e	.
[1E	1G	.	.	.
.	.	.	2e/	.
=29	=29	=29	=29	=29
2E\]	2G/	0G	1.g	1g
2E\	1B-	.	.	.
1.G	.	.	.	2g/
.	2B-\	.	4f/	1b-
.	.	.	4e/	.
.	[1d	1r	2d/	.
4F\	.	.	2g/	2b-\
4E\	.	.	.	.
=30	=30	=30	=30	=30
0D	2d\]	0.r	2f/	1.dd
.	4c\	.	1a	.
.	4B-\	.	.	.
.	1A	.	.	.
.	.	.	4g/	4cc\
.	.	.	4f/	4b-\
1D	1d	.	2f/	2a/
.	.	.	2b-\	[2dd\
=31	=31	=31	=31	=31
2D\	2r	0.r	1a	2dd\]
1F	1A	.	.	1cc
.	.	.	2a/	.
2G\	1d	.	1g	2b-\
1D	.	.	.	1a
.	2d\	.	2f#i/	.
=32	=32	=32	=32	=32
0.G	2.B-\	1G	0.g	1g
.	4c\	.	.	.
.	0d	2G/	.	2r
.	.	1B-	.	1dd
.	.	2B-\	.	4cc\
.	.	.	.	4b-\
=33	=33	=33	=33	=33
0.r	0.r	1.d	0.r	2a/
.	.	.	.	2.b-\
.	.	.	.	4a/
.	.	4c\	.	2b-\
.	.	4B-\	.	.
.	.	2A/	.	2.cc\
.	.	[2d\	.	.
.	.	.	.	4a/
=34	=34	=34	=34	=34
0.r	0.r	2d\]	0.r	2b-\
.	.	1c	.	4cc\
.	.	.	.	4b-\
.	.	.	.	4a/
.	.	.	.	4g/
.	.	2B-\	.	1g
.	.	1A	.	.
.	.	.	.	2f#i/
=35	=35	=35	=35	=35
0.r	2r	[0.G	0.r	0g
.	2d\	.	.	.
.	2d\	.	.	.
.	2d\	.	.	.
.	2e-i\	.	.	1r
.	[2d\	.	.	.
=36	=36	=36	=36	=36
0.r	2d\]	0G]	0.r	2r
.	1B-	.	.	2dd\
.	.	.	.	2dd\
.	4A/	.	.	2dd\
.	4B-\	.	.	.
.	2c\	1r	.	2ee-i\
.	2B-\	.	.	[2dd\
=37	=37	=37	=37	=37
2r	1G	0.r	0.r	2dd\]
2G\	.	.	.	1b-
2G\	1r	.	.	.
2G\	.	.	.	4a/
.	.	.	.	4b-\
2A\	1r	.	.	2cc\
[2G\	.	.	.	2b-\
=38	=38	=38	=38	=38
2G\]	0G	0.r	0.r	1.g
1E	.	.	.	.
4D\	.	.	.	4f/
4E\	.	.	.	4g/
2F\	2.c\	.	.	2a/
2E\	.	.	.	[2g/
.	4B-\	.	.	.
=39	=39	=39	=39	=39
0C	4c\	0.r	1g	2g/]
.	4d\	.	.	.
.	1e	.	.	2g/
.	.	.	2e/	4a/
.	.	.	.	4g/
.	4d\	.	2.g/	1cc
.	4c\	.	.	.
1G	1d	.	.	.
.	.	.	4f/	.
.	.	.	4e/	2bni\
.	.	.	4d/	.
=40	=40	=40	=40	=40
0C	2.c\	[0.c	2.e/	0cc
.	4d\	.	4f/	.
.	2e\	.	2g/	.
.	1f	.	1a	.
1r	.	.	.	1r
.	2e\	.	2g/	.
=41	=41	=41	=41	=41
0F	0f	0.c]	0a	1.cc
.	.	.	.	2dd\
1E	1r	.	1g	1ee
=42	=42	=42	=42	=42
1D	1f	0.d	2f/	1ff
.	.	.	2a/	.
0G	1g	.	2b-\	0dd
.	.	.	1cc	.
.	1g	.	.	.
.	.	.	2bni\	.
=43	=43	=43	=43	=43
0.C	0e	0.c	0cc	0ee
.	1e	.	1g	1r
=44	=44	=44	=44	=44
1r	2e\	0c	1r	1ee
.	1c	.	.	.
1A	.	.	1r	2ee\
.	2A/	.	.	1cc
2A\	[1A	1c	1a	.
[2F\	.	.	.	2a/
=45	=45	=45	=45	=45
2F\]	1A]	[0.d	2a/	0a
2D\	.	.	1f	.
0D	1d	.	.	.
.	.	.	2d/	.
.	2d\	.	[1d	1dd
.	[2B-\	.	.	.
=46	=46	=46	=46	=46
1G	2B-\]	1d]	1d]	2dd\
.	2G/	.	.	1b-
2G\	1G	[0e	1g	.
1E	.	.	.	2g/
.	2r	.	2g/	1g
2C/	2G/	.	[2e/	.
=47	=47	=47	=47	=47
1C	2.c\	0e]	2e/]	2r
.	.	.	2c/	2g/
.	4B-\	.	.	.
2r	1A	.	1c	2.cc\
2C/	.	.	.	.
.	.	.	.	4b-\
2.F\	2.d\	[1d	2r	2a/
.	.	.	2f/	[2dd\
4E\	4c\	.	.	.
=48	=48	=48	=48	=48
2D\	4B-\	1d]	2f/	4dd\]
.	4A/	.	.	4cc\
2.G\	2B-\	.	2d/	4b-\
.	.	.	.	4a/
.	2G/	0e	2.g/	2g/
4F\	.	.	.	.
4E\	1g	.	.	1cc
4D\	.	.	4f/	.
2C/	.	.	2.e/	.
2G\	2g\	.	.	2b-\
.	.	.	4d/	.
=49	=49	=49	=49	=49
2A\	1.e	1r	1c	2cc\
1c	.	.	.	2g/
.	.	1r	1r	2a/
2B-\	2d\	.	.	2b-\
2.c\	2e\	2r	2r	2g/
.	[2c\	2e\	2g/	[2cc\
4B-\	.	.	.	.
=50	=50	=50	=50	=50
2A\	2c\]	2f\	2a/	2cc\]
2G\	2d\	2g\	2b-\	2bni\
2C/	1e	1e	2g/	1cc
2E\	.	.	1cc	.
2F\	1d	2d\	.	1r
2G\	.	[2g\	2bni\	.
=51	=51	=51	=51	=51
2E\	2.c\	4g\]	2cc\	1r
.	.	4f\	.	.
2.A\	.	4e\	2f/	.
.	4B-\	4d\	.	.
.	2A/	2c\	2e/	2r
4G\	.	.	.	.
2F\	1A	1d	2f/	2a/
1E	.	.	1g	2b-\
.	2G/	2c#i\	.	2cc\
=52	=52	=52	=52	=52
0D	0A	[0.dl	0f	2a/
.	.	.	.	2.dd\
.	.	.	.	4cc\
.	.	.	.	4b-\
.	.	.	.	4a/
1r	1B-	.	1g	1g
=53	=53	=53	=53	=53
0.Dl	0.Al	0.d]	0.al	0.fl
!!LO:LB:i:g=z
=54||	=54||	=54||	=54||	=54||
*>B	*>B	*>B	*>B	*>B
*clefF4	*clefGv2	*clefGv2	*clefG2	*clefG2
*k[b-]	*k[b-]	*k[b-]	*k[b-]	*k[b-]
*M2/1	*M2/1	*M2/1	*M2/1	*M2/1
*met(C2)	*met(C2)	*met(C2)	*met(C2)	*met(C2)
!!section: Qui tollis
!!!OMD: Qui tollis
[0D	1A	[0f	0r	0r
.	2A/	.	.	.
.	[2B-\	.	.	.
=55	=55	=55	=55	=55
0D_	4B-\]	0f_	0r	1r
.	4A/	.	.	.
.	1d	.	.	.
.	.	.	.	1a
.	4c\	.	.	.
.	4B-\	.	.	.
=56	=56	=56	=56	=56
0D]	2A/	0f]	0r	2a/
.	1d	.	.	2.b-\
.	.	.	.	4a/
.	4c\	.	.	[2dd\
.	4B-\	.	.	.
=57	=57	=57	=57	=57
1F	1A	0d	0r	2dd\]
.	.	.	.	1cc
1G	1G	.	.	.
.	.	.	.	2bni\
=58	=58	=58	=58	=58
[0A	0r	[0c	1r	0cc
.	.	.	1e	.
=59	=59	=59	=59	=59
0A_	0r	0c_	2e/	1cc
.	.	.	2.f/	.
.	.	.	.	1cc
.	.	.	4e/	.
.	.	.	[2a/	.
=60	=60	=60	=60	=60
0A]	1r	0c]	2a/]	0cc
.	.	.	1g	.
.	1A	.	.	.
.	.	.	2f#i/	.
=61	=61	=61	=61	=61
[0G	1.B-	[0d	[0g	2.b-\
.	.	.	.	4cc\
.	.	.	.	4dd\
.	.	.	.	4ee-i\
.	4A/	.	.	[2dd\
.	4G/	.	.	.
=62	=62	=62	=62	=62
0G]	2B-\	0d]	0g]	2dd\]
.	2c\	.	.	1cc
.	1d	.	.	.
.	.	.	.	2bni\
=63	=63	=63	=63	=63
0C	1.c	0e	1.g	[0cc
.	2A/	.	[2a/	.
=64	=64	=64	=64	=64
1r	2c\	1e	2a/]	0cc]
.	4B-\	.	4g/	.
.	4A/	.	4f/	.
2.C/	1G	[1c	2e/	.
.	.	.	[2g/	.
4D\	.	.	.	.
=65	=65	=65	=65	=65
2E\	2G/	1c]	2g/]	0r
2F\	2A/	.	2c/	.
2E\	2G/	1c	2g/	.
[2F\	[2A/	.	2c/	.
=66	=66	=66	=66	=66
2F\]	2A/]	0d	1f	0r
2D\	2.F/	.	.	.
2.D\	.	.	2.f/	.
.	4G/	.	.	.
.	[2A/	.	.	.
4E\	.	.	4g/	.
=67	=67	=67	=67	=67
2F\	2A/]	0d	2a/	0r
2G\	2B-\	.	2d/	.
2F\	2A/	.	2a/	.
[2G\	[2B-\	.	2d/	.
=68	=68	=68	=68	=68
2G\]	2B-\]	0e	0g	1r
2C/	2G/	.	.	.
[1C	[1G	.	.	[1cc
=69	=69	=69	=69	=69
1C]	1G]	0e	1g	1cc]
1C	1c	.	1g	1cc
=70	=70	=70	=70	=70
1.F	1.c	0f	1a	2.a/
.	.	.	.	4b-\
.	.	.	2a/	2cc\
2BB-/	2B-\	.	2b-\	2dd\
=71	=71	=71	=71	=71
2F\	2c\	1f	2a/	2cc\
2BB-/	1B-	.	2b-\	1dd
2.B-\	.	1d	[1g	.
.	2G/	.	.	2b-\
4G\	.	.	.	.
=72	=72	=72	=72	=72
1.G	1.B-	2d\	1g]	2.b-\
.	.	2.B-\	.	.
.	.	.	.	4cc\
.	.	.	1g	2dd\
.	.	4c\	.	.
2C/	2G/	2c\	.	2ee-i\
=73	=73	=73	=73	=73
2G\	1G	2B-\	0g	2dd\
2C/	.	2.c\	.	2.ee-i\
1c	1A	.	.	.
.	.	4d\	.	4dd\
.	.	[2e-i\	.	[2cc\
=74	=74	=74	=74	=74
1G	1B-	2e-\]	0r	2cc\]
.	.	1d	.	2b-\
2E\	2G/	.	.	1cc
2F\	2A/	[2c\	.	.
=75	=75	=75	=75	=75
1D	1F	2c\]	1r	1dd
.	.	2B-\	.	.
1C	1G	1c	1e	1g
=76	=76	=76	=76	=76
1r	1r	0G	2e/	1r
.	.	.	1e	.
1C	1c	.	.	1g
.	.	.	[2g/	.
=77	=77	=77	=77	=77
0G	1.d	0r	2g/]	0b-
.	.	.	4f/	.
.	.	.	4e/	.
.	.	.	2d/	.
.	[2B-\	.	[2g/	.
=78	=78	=78	=78	=78
2E\	2B-\]	1r	2g/]	1cc
2F\	4A/	.	1f	.
.	4G/	.	.	.
1D	1F	1B-	.	1dd
.	.	.	2d/	.
=79	=79	=79	=79	=79
2C/	2r	0c	2e/	2g/
2F\	2F/	.	2A/	2a/
2E\	2G/	.	2e/	2g/
2F\	[2F/	.	2A/	[2a/
=80	=80	=80	=80	=80
1D	2F/]	1d	1f	2a/]
.	2F/	.	.	2b-\
[1C	1E	[1e	1g	2cc\
.	.	.	.	4b-\
.	.	.	.	4a/
=81	=81	=81	=81	=81
1C]	1G	1e]	1e	1g
1D	1F	[1d	[1a	1r
=82	=82	=82	=82	=82
0AA	0E	1d]	2a/]	0r
.	.	.	2g/	.
.	.	1c#i	1e	.
=83	=83	=83	=83	=83
0r	0D	0d	0f	2.dd\
.	.	.	.	4cc\
.	.	.	.	2a/
.	.	.	.	[2b-\
=84	=84	=84	=84	=84
0r	0r	0e	0r	4b-\]
.	.	.	.	4a/
.	.	.	.	1dd
.	.	.	.	2cc#i\
=85	=85	=85	=85	=85
[0D	2.d\	0d	0r	2dd\
.	.	.	.	2.dd\
.	4c\	.	.	.
.	2A/	.	.	.
.	.	.	.	4cc\
.	[2B-\	.	.	[2b-\
=86	=86	=86	=86	=86
1D]	4B-\]	0r	0r	4b-\]
.	4A/	.	.	4a/
.	1d	.	.	4g/
.	.	.	.	4f/
1E	.	.	.	1g
.	2c#i\	.	.	.
=87	=87	=87	=87	=87
1D	1d	0r	2.a/	1f
.	.	.	4g/	.
[1A	1r	.	2e/	[1cc
.	.	.	[2f/	.
=88	=88	=88	=88	=88
1A]	1r	0r	4f/]	1cc]
.	.	.	4e/	.
.	.	.	1a	.
1B-	1d	.	.	1dd
.	.	.	2g/	.
=89	=89	=89	=89	=89
[0A	2e\	0r	[0a	2cc\
.	2.f\	.	.	4dd\
.	.	.	.	4ee\
.	.	.	.	2ff\
.	4e\	.	.	.
.	[2c\	.	.	[2ee\
=90	=90	=90	=90	=90
0A]	2c\]	0r	0a]	2ee\]
.	2d\	.	.	1dd
.	1e	.	.	.
.	.	.	.	2cc#i\
=91	=91	=91	=91	=91
0D	2r	[0f	[0a	1dd
.	1d	.	.	.
.	.	.	.	2r
.	2d\	.	.	[2dd\
=92	=92	=92	=92	=92
0D	1A	0f]	0a]	2dd\]
.	.	.	.	2dd\
.	2A/	.	.	1a
.	[2d\	.	.	.
=93	=93	=93	=93	=93
0D	2d\]	0d	1r	2a/
.	1A	.	.	1dd
.	.	.	2r	.
.	2A/	.	[2a/	[2a/
=94	=94	=94	=94	=94
0AA	1A	0c	2a/]	4a/]
.	.	.	.	4b-\
.	.	.	2a/	1cc
.	[1A	.	1e	.
.	.	.	.	2a/
=95	=95	=95	=95	=95
1r	2A/]	[0c	2e/	1a
.	2.c\	.	1f	.
1A	.	.	.	2r
.	4B-\	.	.	.
.	4A/	.	2e/	2a/
.	4G/	.	.	.
=96	=96	=96	=96	=96
1A	0F	0c]	1f	2a/
.	.	.	.	2a/
1A	.	.	1f	[1cc
=97	=97	=97	=97	=97
0G	0r	0d	[0g	1cc]
.	.	.	.	1b-
=98	=98	=98	=98	=98
1C	0r	0c	1g]	1cc
1F	.	.	1f	[1a
=99	=99	=99	=99	=99
0G	2r	0B-	1d	2a/]
.	2d\	.	.	4g/
.	.	.	.	4f/
.	2d\	.	2r	1g
.	2d\	.	2d/	.
=100	=100	=100	=100	=100
1D	2.f\	[0A	2d/	0a
.	.	.	2d/	.
.	4e\	.	.	.
2r	2.c\	.	2.f/	.
2A\	.	.	.	.
.	4d\	.	4e/	.
=101	=101	=101	=101	=101
2A\	[0e	0A]	2.c/	0r
2A\	.	.	.	.
.	.	.	4d/	.
2.c\	.	.	2e/	.
.	.	.	2A/	.
4B-\	.	.	.	.
=102	=102	=102	=102	=102
2G\	1e]	0B-	2r	0r
2A\	.	.	1a	.
1B-	1d	.	.	.
.	.	.	2g/	.
=103	=103	=103	=103	=103
1A	1e	[0c	1a	1r
[1A	[1e	.	[1a	[1ee
=104	=104	=104	=104	=104
2A\]	2e\]	0c]	2a/]	2ee\]
2A\	2e\	.	2a/	2ee\
1A	[1e	.	1a	1ee
=105	=105	=105	=105	=105
1A	1e]	[0c	1a	1ee
1A	1e	.	[1a	1ee
=106	=106	=106	=106	=106
1F	1A	0c_	1a]	1ff
1F	1A	.	1a	1ff
=107	=107	=107	=107	=107
0C	1e	0c_	1.g	1.ee
.	[1e	.	.	.
.	.	.	2e/	2cc\
=108	=108	=108	=108	=108
[0C	2e\]	0c]	0e	1cc
.	4d\	.	.	.
.	4c\	.	.	.
.	[1c	.	.	2r
.	.	.	.	[2cc\
=109	=109	=109	=109	=109
0C]	1c]	0e	1r	2cc\]
.	.	.	.	4b-\
.	.	.	.	4a/
.	1c	.	1e	2g/
.	.	.	.	2cc\
=110	=110	=110	=110	=110
1D	1A	[0d	2f/	2f/
.	.	.	2.d/	2.ff\
1D	[1A	.	.	.
.	.	.	4e/	4ee\
.	.	.	4f/	[2dd\
.	.	.	4g/	.
=111	=111	=111	=111	=111
1F	1A]	0d]	1a	2dd\]
.	.	.	.	1cc
1G	1B-	.	1g	.
.	.	.	.	2bni\
=112	=112	=112	=112	=112
1C	1G	0c	1e	1cc
1F	1F	.	1a	1cc
=113	=113	=113	=113	=113
2F\	1f	1c	2a/	2cc\
1F	.	.	1a	1cc
.	2f\	[1c	.	.
2F\	[2f\	.	2a/	2cc\
=114	=114	=114	=114	=114
1D	2f\]	1c]	1a	1dd
.	2f\	.	.	.
1D	1d	1B-	1f	1ff
=115	=115	=115	=115	=115
0C	2e\	1c	1g	1.ee
.	1c	.	.	.
.	.	2A/	2r	.
.	4B-\	2G/	[2g/	2cc\
.	4A/	.	.	.
=116	=116	=116	=116	=116
1r	1G	1B-	4g/]	1dd
.	.	.	4f/	.
.	.	.	2d/	.
1C	1r	[1c	1e	2r
.	.	.	.	2g/
=117	=117	=117	=117	=117
0F	0r	1c]	0f	1a
.	.	1A	.	[1cc
=118	=118	=118	=118	=118
2E\	0r	1G	[0g	1cc]
2.C/	.	.	.	.
.	.	2.c\	.	1cc
4D\	.	.	.	.
4E\	.	.	.	.
4F\	.	4d\	.	.
=119	=119	=119	=119	=119
0G	0r	2e\	0g]	2b-\
.	.	2.d\	.	2.g/
.	.	4c\	.	4a/
.	.	4B-\	.	4b-\
.	.	4A/	.	4cc\
=120	=120	=120	=120	=120
1G	0r	2G/	1b-	2dd\
.	.	1g	.	2.ee\
2E\	.	.	2g/	.
.	.	.	.	4dd\
2D\	.	[2f\	[2a/	4ff\
.	.	.	.	4ee\
=121	=121	=121	=121	=121
1F	0r	2f\]	2a/]	4dd\
.	.	.	.	4cc\
.	.	2e\	2a/	1cc
1G	.	1d	1g	.
.	.	.	.	2bni\
=122	=122	=122	=122	=122
*M3/1	*	*	*M3/1	*M3/1
*met(3)	*	*	*met(3)	*met(3)
!!primary-mensuration: met(3)
*	*rscale:2/3	*rscale:2/3	*	*M
0.r	0.r	[0.c	1e	0.cc
.	.	.	1r	.
.	.	.	1c	.
*	*rscale:1	*	*	*
=123	=123	=123	=123	=123
*	*M3/1	*	*	*
*	*met(3)	*	*	*
1r	0.r	0.c]	0e	0.r
1r	.	.	.	.
1C	.	.	1e	.
*	*	*rscale:1	*	*
=124	=124	=124	=124	=124
*	*	*M3/1	*	*
*	*	*met(3)	*	*
0E	1r	0.G	1.g	0.r
.	1r	.	.	.
.	.	.	2f/	.
1E	1G	.	1e	.
=125	=125	=125	=125	=125
1.G	0B-	0.r	1d	1r
.	.	.	0g	1r
2F\	.	.	.	.
1E	1B-	.	.	1g
=126	=126	=126	=126	=126
1D	1.d	0.r	1f	0b-
0G	.	.	0g	.
.	2c\	.	.	.
.	1B-	.	.	1b-
=127	=127	=127	=127	=127
0D	1A	0.r	0a	1.dd
.	0d	.	.	.
.	.	.	.	2cc\
1D	.	.	[1f	1b-
=128	=128	=128	=128	=128
0F	1.c	0.r	1f]	1a
.	.	.	0a	0cc
.	2B-\	.	.	.
1F	1A	.	.	.
=129	=129	=129	=129	=129
1.G	0.G	1r	0d	1.b-
.	.	1r	.	.
2F\	.	.	.	2a/
1E	.	1G	1e	1g
=130	=130	=130	=130	=130
1D	1r	0B-	1f	1f
0G	1r	.	0g	0b-
.	1G	1B-	.	.
=131	=131	=131	=131	=131
0D	0A	1.d	1.f	0a
.	.	2c\	2e/	.
1r	1G	1B-	1e	1b-
=132	=132	=132	=132	=132
0.r	1F	1A	1.a	1.cc
.	0B-	0d	.	.
.	.	.	2g/	2a/
.	.	.	1g	1b-
=133	=133	=133	=133	=133
[0.F	0.A	0c	1a	1cc
.	.	.	0f	[0a
.	.	1c	.	.
=134	=134	=134	=134	=134
1F]	0.r	1A	1f	0a]
0G	.	0B-	1d	.
.	.	.	1e	1g
=135	=135	=135	=135	=135
0D	1.d	0A	0f	0a
.	2c\	.	.	.
1E	1B-	1r	1e	1r
=136	=136	=136	=136	=136
1.F	1A	0.r	1c	0a
.	0F	.	0f	.
2E\	.	.	.	.
1D	.	.	.	1b-
=137	=137	=137	=137	=137
0C	0G	0.r	0e	1.cc
.	.	.	.	2dd\
1C	1G	.	1e	1ee
=138	=138	=138	=138	=138
0D	0F	0A	1.a	1ff
.	.	.	.	0dd
.	.	.	2g/	.
1D	1F	1B-	1f	.
=139	=139	=139	=139	=139
0.C	0G	1.c	1.e	1.ee
.	.	2d\	2f/	2cc\
.	1G	1e	1g	1cc
=140	=140	=140	=140	=140
0.r	1F	1f	1a	0cc
.	0G	0d	0g	.
.	.	.	.	1bni
=141	=141	=141	=141	=141
0C	0.r	0.c	0e	0cc
1C	.	.	[1g	1cc
=142	=142	=142	=142	=142
0G	0d	0.r	1g]	1b-
.	.	.	0d	0dd
1G	1B-	.	.	.
=143	=143	=143	=143	=143
1A	1c	1r	0a	0cc
0F	0A	1r	.	.
.	.	1c	1a	1a
=144	=144	=144	=144	=144
0G	1G	1B-	1d	1.b-
.	1.B-	0d	0g	.
.	.	.	.	2a/
1G	.	.	.	1b-
.	2A/	.	.	.
=145	=145	=145	=145	=145
1A	0A	0.c	1e	0cc
0F	.	.	0f	.
.	1A	.	.	1cc
=146	=146	=146	=146	=146
1.BB-	1B-	1B-	2g/	1.dd
.	.	.	1b-	.
.	0G	0d	.	.
2C/	.	.	2a/	2cc\
2D\	.	.	1g	1b-
2E\	.	.	.	.
=147	=147	=147	=147	=147
0F	0A	0.c	[0.f	1.a
.	.	.	.	2g/
1F	1A	.	.	1a
=148	=148	=148	=148	=148
1.BB-	0F	1B-	0f]	0b-
.	.	0d	.	.
2C/	.	.	.	.
2D\	1G	.	1r	1b-
2E\	.	.	.	.
=149	=149	=149	=149	=149
0F	0A	0c	[0.f	0a
1F	[1c	[1A	.	1a
=150	=150	=150	=150	=150
1A	1c]	1A]	1f]	1f
0G	1d	0B-	1d	0g
.	1B-	.	1e	.
=151	=151	=151	=151	=151
0F	1c	[0.A	0f	[0.al
.	1.A	.	.	.
[1C	.	.	1e	.
.	2G/	.	.	.
=152	=152	=152	=152	=152
1C]	1E	0.A]	0e	0.a_
0D	0F	.	.	.
.	.	.	1d	.
=153	=153	=153	=153	=153
0.AAl	0.El	0.Al	0.el	0.a]
==	==	==	==	==
*-	*-	*-	*-	*-
!!!RDF**kern: l=long note in original notation
!!!RDF**kern: i=editorial accidental
!!!RDF**kern: V=start of tuplet marker
!!!RDF**kern: Z=end of tuplet marker
!!!ENC:	Chris Gage 09-22-2012
!!!END:	2012/09/29/
!!!EED:	Jesse Rodin
!!!EEV:	2012/09/29/
!!!ONB:	Translated from MusicXML and edited on 2012/09/29/ by Craig Sapp
!!muse2ps: T^@{OPR}^u^@{ONM}{. }@{OTL}^C^@{COM}^i2I150v85,85,85,85,130Q8c140
